X: 100439
T: WHEN YOU GO TO THE HILL TAKE YOUR GUN -- Strathspey
R: strathspey
B: K\"ohler's Violin Repository, v.3, 1885 p.277 #2
F: http://www.archive.org/details/klersviolinrepos03rugg
Z: 2012 John Chambers <jc:trillian.mit.edu>
M: C|
L: 1/8
K: G
uB |\
(.D>.G)(B>G) (c>A)(B>G) | A/A/A (B>G) (.c>.A)(=F<A) |\
(.D>.G)(B>G) (c>A)(B>G) | A/A/A (d>c) (.B>.G)(G<B) |
(.D>.G)(B>G) (c>A)(B>G) | A/A/A (B>G) c>A(=F<A) |\
(.D>.G)(B>G) (c>A)(B>G) | A/A/A (.d>{ed}c) B>GG |]
uf |\
(.g>d)(d>e) (=f>{gfe}g) {fg}(.a>.g) | (.=f>d)(c>{dc}_B) AFF^f |\
g<(dd>e) (.g>"<~"a) {ga}(.b>.a) | (.g>.d)(d>e) (g/f/g/a/) (.g>.b) |
g<(d"_>"d>e) (.=f>{gf}e)(fa) | (.=f>.d)(c>{dc}_B) AF.F (e/^f/) |\
(g>e)(=f>d) (e>c)(d>B) | A<g f<a "_Segue Reel."gGG "^D.C."|]

%%sep 2 1 500

